icons-common/twoChevrons.svg

<svg height="1em" width="auto" viewBox="0 0 105 105" fill="currentColor" xmlns="http://www.w3.org/2000/svg">
    <path d="M52.0279 73C51.29 73.0033 50.5675 72.8375 49.9526 72.5239C49.3376 72.2103 48.8581 71.763 48.5751 71.239C48.2922 70.715 48.2186 70.1381 48.3637 69.5819C48.5089 69.0256 48.8662 68.5152 49.3901 68.1157L69.0806 53.0058L49.3901 37.896C48.7815 37.3496 48.4635 36.6467 48.4996 35.9278C48.5357 35.209 48.9233 34.527 49.585 34.0184C50.2466 33.5097 51.1336 33.2117 52.0686 33.1839C53.0036 33.1561 53.9178 33.4006 54.6286 33.8686L76.9197 51.0064C77.6116 51.5416 78 52.2655 78 53.0201C78 53.7747 77.6116 54.4986 76.9197 55.0338L54.6286 72.1716C53.9366 72.6993 53.0026 72.9968 52.0279 73Z"
          />
    <path d="M29.7368 73C28.9989 73.0033 28.2764 72.8375 27.6614 72.5239C27.0465 72.2103 26.567 71.763 26.284 71.239C26.001 70.715 25.9274 70.1381 26.0726 69.5819C26.2177 69.0256 26.5751 68.5152 27.099 68.1157L46.7895 53.0058L27.099 37.896C26.3994 37.3581 26.0064 36.6286 26.0064 35.868C26.0064 35.1074 26.3994 34.3779 27.099 33.84C27.7986 33.3022 28.7474 33 29.7368 33C30.7262 33 31.675 33.3022 32.3746 33.84L54.6657 50.9778C55.3576 51.513 55.746 52.2369 55.746 52.9915C55.746 53.7461 55.3576 54.4701 54.6657 55.0052L32.3746 72.1431C32.0305 72.4129 31.6202 72.6277 31.1674 72.7747C30.7146 72.9218 30.2283 72.9984 29.7368 73Z"
          />
</svg>

<svg xmlns="http://www.w3.org/2000/svg" width="auto" height="1em" fill="currentColor" viewBox="0 0 105 105">
    <path d="M52.028 73a4.55 4.55 0 0 1-2.075-.476c-.615-.314-1.095-.761-1.378-1.285a2.25 2.25 0 0 1-.211-1.657c.145-.556.502-1.067 1.026-1.466l19.69-15.11-19.69-15.11c-.608-.546-.926-1.25-.89-1.968.036-.719.423-1.401 1.085-1.91s1.549-.806 2.484-.834 1.849.217 2.56.685l22.29 17.137c.693.536 1.081 1.26 1.081 2.014 0 .755-.388 1.479-1.08 2.014L54.629 72.172c-.692.527-1.626.825-2.601.828"/>
    <path d="M29.737 73a4.56 4.56 0 0 1-2.076-.476c-.614-.314-1.094-.761-1.377-1.285a2.25 2.25 0 0 1-.211-1.657c.145-.556.502-1.067 1.026-1.466l19.69-15.11-19.69-15.11c-.7-.538-1.093-1.267-1.093-2.028 0-.76.393-1.49 1.093-2.028s1.648-.84 2.638-.84 1.938.302 2.638.84l22.29 17.138c.693.535 1.081 1.259 1.081 2.014s-.388 1.478-1.08 2.013L32.375 72.143c-.344.27-.755.485-1.208.632s-.939.223-1.43.225"/>
</svg>
